X: 39760
T: Thames, The
R: hornpipe
M: 4/4
K: Gmajor
(3d^c=c|BgdB AecA|G2 (3BAG FcAF|GDEF GABd|^cded fe (3d^c=c|
BgdB AecA|(3GGG (3BAG FcAF|GDEF GABd|^cdef g2 (3d^c=c|
BgdB AecA|(3GFG (3BAG FcAF|GDEF GABd|^cded fe (3d^c=c|
BgdB AecA|(3GFG (3BAG FcAF|GDEF GABd|^cdef g2 FG||
Ad (3d^cd ed (3d^cd|Be (3e^de fe (3e^de|gfe^d e=d^cB|(3ABA ^GB A2 F=G|
Ad (3d^cd ed (3d^cd|Be (3e^de fe (3e^de|gfed ^cABc|(3ded ^ce d2 FG|
Ad (3d^cd ed (3d^cd|Be (3e^de fe (3e^de|gfe^d e=d^cB|(3A^ce (3ae^c A2 FG|
Ad (3d^cd ed (3d^cd|Be (3e^de fe (3e^de|gfed ^cABc|(3ded ^ce d2||

